;FLAVOR:Marlin
;TIME:4027
;Filament used: 0.714113m
;Layer height: 0.1
;MINX:22.759
;MINY:36.073
;MINZ:0.3
;MAXX:72.298
;MAXY:63.925
;MAXZ:36
;Generated with Cura_SteamEngine 4.6.1
M104 S200
M105
M109 S200
M82 ;absolute extrusion mode
G28 ;Home
G1 Z15.0 F6000 ;Move the platform down 15mm
;Prime the extruder
G92 E0
G1 F200 E3
G92 E0
G92 E0
G92 E0
G1 F1500 E-6.5
;LAYER_COUNT:358
;LAYER:0
M107
G0 F3600 X26.556 Y38.87 Z0.3
;TYPE:SKIRT
G1 F1500 E0
G1 F1800 X27.333 Y38.379 E0.01729
G1 X28.284 Y37.9 E0.03732
G1 X29.065 Y37.615 E0.05296
G1 X30.093 Y37.343 E0.07296
G1 X31.032 Y37.216 E0.09078
G1 X32.064 Y37.14 E0.11025
G1 X49.127 Y36.096 E0.43181
G1 X50.02 Y36.073 E0.44862
G1 X50.976 Y36.095 E0.46661
G1 X51.916 Y36.165 E0.48434
G1 X52.829 Y36.278 E0.50164
G1 X53.708 Y36.429 E0.51842
G1 X54.582 Y36.621 E0.53525
G1 X55.449 Y36.856 E0.55215
G1 X56.244 Y37.109 E0.56784
G1 X57.107 Y37.432 E0.58517
G1 X57.93 Y37.783 E0.602
G1 X58.748 Y38.178 E0.61909
G1 X59.527 Y38.601 E0.63577
G1 X60.301 Y39.07 E0.65279
G1 X60.997 Y39.536 E0.66855
G1 X61.709 Y40.061 E0.68519
G1 X62.384 Y40.606 E0.70151
G1 X63.107 Y41.252 E0.71974
G1 X63.756 Y41.893 E0.7369
G1 X64.35 Y42.539 E0.75341
G1 X64.899 Y43.189 E0.76941
G1 X65.458 Y43.921 E0.78674
G1 X65.999 Y44.706 E0.80467
G1 X66.479 Y45.479 E0.82179
G1 X66.853 Y46.175 E0.83665
G1 X67.054 Y46.638 E0.84615
G1 X67.408 Y47.638 E0.8661
G1 X67.585 Y48.407 E0.88094
G1 X67.669 Y49.03 E0.89277
G1 X67.73 Y50.093 E0.9128
G1 X67.685 Y50.881 E0.92764
G1 X67.589 Y51.534 E0.94006
G1 X67.423 Y52.306 E0.95491
G1 X67.178 Y53.057 E0.96977
G1 X66.902 Y53.706 E0.98304
G1 X66.429 Y54.607 E1.00218
G1 X66.139 Y55.081 E1.01263
G1 X65.604 Y55.878 E1.03069
G1 X65.058 Y56.609 E1.04785
G1 X64.509 Y57.277 E1.06412
G1 X63.95 Y57.901 E1.07988
G1 X63.311 Y58.552 E1.09703
G1 X62.616 Y59.194 E1.11483
G1 X61.921 Y59.773 E1.13185
G1 X61.24 Y60.291 E1.14794
G1 X60.45 Y60.836 E1.166
G1 X59.666 Y61.318 E1.18331
G1 X58.978 Y61.703 E1.19814
G1 X58.154 Y62.115 E1.21547
G1 X57.32 Y62.482 E1.23261
G1 X56.56 Y62.779 E1.24796
G1 X55.684 Y63.074 E1.26534
G1 X54.871 Y63.305 E1.28124
G1 X54.041 Y63.502 E1.29729
G1 X53.22 Y63.66 E1.31301
G1 X52.35 Y63.787 E1.32955
G1 X51.485 Y63.872 E1.3459
G1 X50.643 Y63.918 E1.36177
G1 X49.709 Y63.925 E1.37933
G1 X48.846 Y63.891 E1.39558
G1 X31.317 Y62.814 E1.72593
G1 X30.479 Y62.717 E1.7418
G1 X29.411 Y62.494 E1.76232
G1 X28.677 Y62.25 E1.77687
G1 X27.711 Y61.833 E1.79667
G1 X26.973 Y61.405 E1.81271
G1 X26.115 Y60.794 E1.83253
G1 X25.457 Y60.194 E1.84928
G1 X24.749 Y59.414 E1.86909
G1 X24.235 Y58.688 E1.88583
G1 X23.706 Y57.768 E1.90579
G1 X23.324 Y56.851 E1.92447
G1 X23.001 Y55.786 E1.94541
G1 X22.846 Y54.89 E1.96251
G1 X22.808 Y54.554 E1.96887
G1 X22.759 Y53.676 E1.98542
G1 X22.76 Y46.455 E2.12125
G1 X22.784 Y45.75 E2.13452
G1 X22.86 Y44.964 E2.14937
G1 X22.962 Y44.411 E2.15995
G1 X23.23 Y43.394 E2.17973
G1 X23.518 Y42.654 E2.19467
G1 X23.993 Y41.695 E2.2148
G1 X24.48 Y40.952 E2.23151
G1 X25.138 Y40.13 E2.25132
G1 X25.741 Y39.536 E2.26724
G1 X26.556 Y38.87 E2.28704
G0 F3600 X26.805 Y39.183
G1 F1800 X27.527 Y38.729 E2.30308
G1 X28.459 Y38.26 E2.3227
G1 X29.182 Y37.998 E2.33717
G1 X30.19 Y37.731 E2.35679
G1 X31.062 Y37.615 E2.37333
G1 X32.094 Y37.539 E2.3928
G1 X49.151 Y36.495 E2.71425
G1 X50.027 Y36.473 E2.73073
G1 X50.963 Y36.495 E2.74834
G1 X51.882 Y36.564 E2.76568
G1 X52.777 Y36.674 E2.78264
G1 X53.636 Y36.822 E2.79904
G1 X54.493 Y37.011 E2.81555
G1 X55.34 Y37.241 E2.83206
G1 X56.119 Y37.49 E2.84744
G1 X56.963 Y37.805 E2.86439
G1 X57.77 Y38.149 E2.88089
G1 X58.57 Y38.536 E2.8976
G1 X59.333 Y38.951 E2.91394
G1 X60.09 Y39.41 E2.93059
G1 X60.772 Y39.867 E2.94604
G1 X61.469 Y40.381 E2.96233
G1 X62.13 Y40.916 E2.97832
G1 X62.837 Y41.548 E2.99616
G1 X63.472 Y42.175 E3.01295
G1 X64.053 Y42.807 E3.0291
G1 X64.591 Y43.445 E3.0448
G1 X65.137 Y44.16 E3.06172
G1 X65.668 Y44.93 E3.07931
G1 X66.137 Y45.686 E3.09605
G1 X66.5 Y46.364 E3.11051
G1 X66.782 Y47.038 E3.12426
G1 X67.028 Y47.766 E3.13871
G1 X67.198 Y48.517 E3.1532
G1 X67.271 Y49.068 E3.16365
G1 X67.33 Y50.11 E3.18328
G1 X67.233 Y51.237 E3.20456
G1 X67.031 Y52.221 E3.22346
G1 X66.653 Y53.281 E3.24463
G1 X66.536 Y53.544 E3.25004
G1 X66.087 Y54.398 E3.26819
G1 X65.797 Y54.872 E3.27864
G1 X65.275 Y55.651 E3.29628
G1 X64.74 Y56.366 E3.31308
G1 X64.202 Y57.021 E3.32902
G1 X63.654 Y57.632 E3.34446
G1 X63.028 Y58.27 E3.36128
G1 X62.348 Y58.897 E3.37867
G1 X61.668 Y59.463 E3.39532
G1 X61 Y59.971 E3.4111
G1 X60.226 Y60.504 E3.42878
G1 X59.46 Y60.975 E3.44569
G1 X58.785 Y61.352 E3.46024
G1 X57.978 Y61.756 E3.47721
G1 X57.163 Y62.114 E3.49396
G1 X56.417 Y62.406 E3.50903
G1 X55.562 Y62.693 E3.52599
G1 X54.765 Y62.919 E3.54158
G1 X53.952 Y63.112 E3.55729
G1 X53.147 Y63.267 E3.57271
G1 X52.296 Y63.39 E3.58889
G1 X51.45 Y63.473 E3.60488
G1 X50.624 Y63.519 E3.62044
G1 X49.71 Y63.525 E3.63763
G1 X48.865 Y63.491 E3.65354
G1 X31.341 Y62.415 E3.9838
G1 X30.547 Y62.323 E3.99883
G1 X29.498 Y62.103 E4.019
G1 X28.822 Y61.877 E4.0324
G1 X27.875 Y61.468 E4.05181
G1 X27.193 Y61.07 E4.06666
G1 X26.351 Y60.47 E4.08611
G1 X25.743 Y59.914 E4.10161
G1 X25.049 Y59.148 E4.12105
G1 X24.574 Y58.476 E4.13653
G1 X24.056 Y57.574 E4.1561
G1 X23.703 Y56.721 E4.17346
G1 X23.386 Y55.675 E4.19402
G1 X23.244 Y54.845 E4.20986
G1 X23.206 Y54.509 E4.21622
G1 X23.159 Y53.676 E4.23192
G1 X23.16 Y46.455 E4.36775
G1 X23.184 Y45.768 E4.38068
G1 X23.259 Y45.003 E4.39514
G1 X23.353 Y44.498 E4.4048
G1 X23.616 Y43.501 E4.42419
G1 X23.883 Y42.818 E4.43799
G1 X24.349 Y41.877 E4.45774
G1 X24.801 Y41.19 E4.47321
G1 X25.447 Y40.384 E4.49264
G1 X26.006 Y39.836 E4.50736
G1 X26.805 Y39.183 E4.52678
G0 F3600 X27.054 Y39.497
G1 F1800 X27.72 Y39.079 E4.54157
G1 X28.634 Y38.62 E4.56081
G1 X29.299 Y38.38 E4.5741
G1 X30.287 Y38.12 E4.59332
G1 X31.091 Y38.014 E4.60858
G1 X32.123 Y37.938 E4.62804
G1 X49.176 Y36.894 E4.94942
G1 X50.034 Y36.873 E4.96556
G1 X50.949 Y36.895 E4.98278
G1 X51.848 Y36.962 E4.99974
G1 X52.724 Y37.071 E5.01634
G1 X53.564 Y37.216 E5.03238
G1 X54.404 Y37.401 E5.04856
G1 X55.232 Y37.626 E5.0647
G1 X55.994 Y37.87 E5.07975
G1 X56.819 Y38.178 E5.09631
G1 X57.611 Y38.516 E5.11251
G1 X58.392 Y38.895 E5.12884
G1 X59.14 Y39.301 E5.14485
G1 X59.878 Y39.75 E5.1611
G1 X60.547 Y40.198 E5.17624
G1 X61.228 Y40.7 E5.19216
G1 X61.876 Y41.225 E5.20785
G1 X62.567 Y41.843 E5.22528
G1 X63.188 Y42.456 E5.2417
G1 X63.756 Y43.074 E5.25749
G1 X64.284 Y43.701 E5.27291
G1 X64.816 Y44.399 E5.28941
G1 X65.337 Y45.154 E5.30667
G1 X65.794 Y45.893 E5.32301
G1 X66.147 Y46.553 E5.33709
G1 X66.41 Y47.185 E5.34997
G1 X66.649 Y47.894 E5.36404
G1 X66.81 Y48.625 E5.37812
G1 X66.899 Y49.38 E5.39242
G1 X66.929 Y50.127 E5.40649
G1 X66.838 Y51.172 E5.42622
G1 X66.64 Y52.135 E5.44471
G1 X66.288 Y53.118 E5.46435
G1 X66.171 Y53.381 E5.46977
G1 X65.746 Y54.189 E5.48694
G1 X65.456 Y54.663 E5.49739
G1 X64.945 Y55.425 E5.51465
G1 X64.422 Y56.124 E5.53107
G1 X63.896 Y56.764 E5.54666
G1 X63.359 Y57.362 E5.56177
G1 X62.745 Y57.988 E5.57827
G1 X62.08 Y58.6 E5.59527
G1 X61.416 Y59.152 E5.61151
G1 X60.76 Y59.651 E5.62701
G1 X60.003 Y60.172 E5.6443
G1 X59.254 Y60.632 E5.66083
G1 X58.592 Y61.002 E5.6751
G1 X57.803 Y61.396 E5.69169
G1 X57.006 Y61.746 E5.70806
G1 X56.273 Y62.032 E5.72286
G1 X55.439 Y62.312 E5.73941
G1 X54.659 Y62.534 E5.75467
G1 X53.863 Y62.722 E5.77005
G1 X53.075 Y62.873 E5.78514
G1 X52.243 Y62.994 E5.80096
G1 X51.415 Y63.075 E5.81661
G1 X50.605 Y63.119 E5.83187
G1 X49.712 Y63.125 E5.84867
G1 X48.885 Y63.092 E5.86424
G1 X31.366 Y62.016 E6.1944
G1 X30.614 Y61.929 E6.20864
G1 X29.587 Y61.712 E6.22838
G1 X28.966 Y61.505 E6.2407
G1 X28.039 Y61.102 E6.25971
G1 X27.412 Y60.736 E6.27337
G1 X26.588 Y60.148 E6.29241
G1 X26.029 Y59.635 E6.30668
G1 X25.35 Y58.884 E6.32573
G1 X24.913 Y58.264 E6.33999
G1 X24.406 Y57.379 E6.35918
G1 X24.081 Y56.591 E6.37521
G1 X23.771 Y55.565 E6.39537
G1 X23.641 Y54.8 E6.40997
G1 X23.603 Y54.464 E6.41633
G1 X23.559 Y53.676 E6.43118
G1 X23.56 Y46.455 E6.56701
G1 X23.583 Y45.786 E6.5796
G1 X23.657 Y45.042 E6.59366
G1 X23.8 Y44.329 E6.60734
G1 X24.002 Y43.608 E6.62143
G1 X24.248 Y42.982 E6.63408
G1 X24.705 Y42.061 E6.65342
G1 X25.123 Y41.428 E6.66769
G1 X25.756 Y40.64 E6.6867
G1 X26.271 Y40.135 E6.70027
G1 X27.054 Y39.497 E6.71927
G0 F3600 X27.303 Y39.811
G1 F1800 X27.913 Y39.43 E6.7328
G1 X28.808 Y38.981 E6.75163
G1 X29.416 Y38.763 E6.76378
G1 X30.383 Y38.509 E6.78259
G1 X31.12 Y38.413 E6.79657
G1 X32.152 Y38.337 E6.81603
G1 X49.2 Y37.293 E7.13732
G1 X50.04 Y37.273 E7.15312
G1 X50.936 Y37.295 E7.16998
G1 X51.814 Y37.361 E7.18654
G1 X52.671 Y37.467 E7.20279
G1 X53.492 Y37.609 E7.21846
G1 X54.314 Y37.791 E7.2343
G1 X55.123 Y38.011 E7.25007
G1 X55.87 Y38.25 E7.26482
G1 X56.675 Y38.551 E7.28099
G1 X57.451 Y38.883 E7.29686
G1 X58.213 Y39.253 E7.3128
G1 X58.946 Y39.651 E7.32849
G1 X59.667 Y40.089 E7.34436
G1 X60.322 Y40.528 E7.35919
G1 X60.987 Y41.02 E7.37475
G1 X61.622 Y41.534 E7.39012
G1 X62.298 Y42.139 E7.40718
G1 X62.904 Y42.738 E7.42321
G1 X63.458 Y43.342 E7.43863
G1 X63.976 Y43.957 E7.45375
G1 X64.496 Y44.638 E7.46987
G1 X65.005 Y45.379 E7.48678
G1 X65.452 Y46.1 E7.50274
G1 X65.793 Y46.742 E7.51641
G1 X66.039 Y47.333 E7.52845
G1 X66.269 Y48.021 E7.5421
G1 X66.422 Y48.731 E7.55576
G1 X66.5 Y49.418 E7.56877
G1 X66.529 Y50.143 E7.58242
G1 X66.443 Y51.108 E7.60064
G1 X66.249 Y52.049 E7.61871
G1 X65.922 Y52.956 E7.63685
G1 X65.805 Y53.219 E7.64226
G1 X65.405 Y53.98 E7.65843
G1 X65.115 Y54.454 E7.66889
G1 X64.615 Y55.199 E7.68576
G1 X64.105 Y55.881 E7.70178
G1 X63.589 Y56.507 E7.71704
G1 X63.063 Y57.093 E7.73186
G1 X62.462 Y57.705 E7.74799
G1 X61.813 Y58.303 E7.76459
G1 X61.163 Y58.842 E7.78048
G1 X60.52 Y59.332 E7.79568
G1 X59.78 Y59.84 E7.81257
G1 X59.049 Y60.289 E7.8287
G1 X58.399 Y60.652 E7.84271
G1 X57.628 Y61.037 E7.85892
G1 X56.849 Y61.378 E7.87491
G1 X56.13 Y61.659 E7.88944
G1 X55.316 Y61.932 E7.90559
G1 X54.553 Y62.148 E7.9205
G1 X53.774 Y62.332 E7.93556
G1 X53.002 Y62.48 E7.95034
G1 X52.189 Y62.598 E7.9658
G1 X51.379 Y62.676 E7.9811
G1 X50.586 Y62.72 E7.99604
G1 X49.713 Y62.725 E8.01247
G1 X48.904 Y62.692 E8.0277
G1 X31.39 Y61.617 E8.35776
G1 X30.682 Y61.534 E8.37117
G1 X29.676 Y61.322 E8.39051
G1 X29.111 Y61.132 E8.40173
G1 X28.204 Y60.737 E8.42033
G1 X27.631 Y60.401 E8.43283
G1 X26.826 Y59.825 E8.45145
G1 X26.314 Y59.355 E8.46452
G1 X25.651 Y58.619 E8.48316
G1 X25.252 Y58.051 E8.49621
G1 X24.757 Y57.185 E8.51498
G1 X24.459 Y56.461 E8.5297
G1 X24.157 Y55.456 E8.54944
G1 X24.039 Y54.755 E8.56282
G1 X24.001 Y54.419 E8.56918
G1 X23.959 Y53.676 E8.58317
G1 X23.96 Y46.455 E8.71901
G1 X23.983 Y45.805 E8.73124
G1 X24.056 Y45.082 E8.74491
G1 X24.191 Y44.416 E8.75769
G1 X24.387 Y43.716 E8.77137
G1 X24.613 Y43.146 E8.7829
G1 X25.061 Y42.244 E8.80184
G1 X25.444 Y41.666 E8.81489
G1 X26.065 Y40.895 E8.83351
G1 X26.536 Y40.435 E8.84589
G1 X27.303 Y39.811 E8.86449
G0 F3600 X27.551 Y40.126
G1 F1800 X28.106 Y39.78 E8.8768
G1 X28.982 Y39.342 E8.89522
G1 X29.532 Y39.145 E8.90621
G1 X30.478 Y38.898 E8.9246
G1 X31.15 Y38.812 E8.93734
G1 X32.182 Y38.736 E8.95681
G1 X49.224 Y37.693 E9.27798
G1 X50.047 Y37.673 E9.29346
G1 X50.922 Y37.695 E9.30993
G1 X51.78 Y37.759 E9.32611
G1 X52.619 Y37.864 E9.34202
G1 X53.42 Y38.003 E9.35731
G1 X54.225 Y38.181 E9.37282
G1 X55.014 Y38.396 E9.3882
G1 X55.745 Y38.63 E9.40264
G1 X56.531 Y38.924 E9.41842
G1 X57.291 Y39.249 E9.43397
G1 X58.035 Y39.611 E9.44954
G1 X58.752 Y40.001 E9.46489
G1 X59.456 Y40.429 E9.48039
G1 X60.097 Y40.859 E9.49491
G1 X60.747 Y41.339 E9.51011
G1 X61.368 Y41.843 E9.52515
G1 X62.028 Y42.434 E9.54182
G1 X62.62 Y43.02 E9.55748
G1 X63.161 Y43.61 E9.57254
G1 X63.669 Y44.212 E9.58736
G1 X64.175 Y44.877 E9.60308
G1 X64.674 Y45.603 E9.61965
G1 X65.11 Y46.307 E9.63522
G1 X65.567 Y47.228 E9.65456
G1 X65.889 Y48.148 E9.6729
G1 X66.076 Y49.181 E9.69265
G1 X66.129 Y50.159 E9.71107
G1 X66.048 Y51.043 E9.72777
G1 X65.857 Y51.962 E9.74543
G1 X65.557 Y52.793 E9.76204
G1 X65.44 Y53.056 E9.76746
G1 X65.064 Y53.772 E9.78267
G1 X64.774 Y54.246 E9.79312
G1 X64.285 Y54.972 E9.80959
G1 X63.787 Y55.638 E9.82523
G1 X63.282 Y56.251 E9.84017
G1 X62.768 Y56.823 E9.85464
G1 X62.179 Y57.423 E9.87045
G1 X61.545 Y58.006 E9.88665
G1 X60.911 Y58.532 E9.90215
G1 X60.28 Y59.012 E9.91706
G1 X59.557 Y59.508 E9.93356
G1 X58.843 Y59.946 E9.94931
G1 X58.206 Y60.301 E9.96303
G1 X57.453 Y60.677 E9.97886
G1 X56.692 Y61.01 E9.99449
G1 X55.987 Y61.285 E10.00872
G1 X55.193 Y61.551 E10.02447
G1 X54.447 Y61.762 E10.03906
G1 X53.685 Y61.942 E10.05379
G1 X52.93 Y62.087 E10.06825
G1 X52.136 Y62.201 E10.08334
G1 X51.344 Y62.278 E10.0983
G1 X50.567 Y62.32 E10.11294
G1 X49.715 Y62.325 E10.12897
G1 X48.924 Y62.293 E10.14386
G1 X31.415 Y61.217 E10.47383
G1 X30.749 Y61.14 E10.48645
G1 X29.765 Y60.931 E10.50537
G1 X29.256 Y60.759 E10.51548
G1 X28.37 Y60.372 E10.53366
G1 X27.851 Y60.067 E10.54499
G1 X27.064 Y59.503 E10.5632
G1 X26.6 Y59.075 E10.57507
G1 X25.952 Y58.356 E10.59328
G1 X25.591 Y57.839 E10.60514
G1 X25.108 Y56.992 E10.62348
G1 X24.838 Y56.331 E10.63691
G1 X24.542 Y55.348 E10.65622
G1 X24.436 Y54.71 E10.66839
G1 X24.398 Y54.374 E10.67475
G1 X24.359 Y53.676 E10.6879
G1 X24.36 Y46.455 E10.82373
G1 X24.382 Y45.823 E10.83563
G1 X24.454 Y45.123 E10.84886
G1 X24.581 Y44.503 E10.86077
G1 X24.773 Y43.825 E10.87402
G1 X24.977 Y43.309 E10.88446
G1 X25.417 Y42.429 E10.90297
G1 X25.766 Y41.904 E10.91483
G1 X26.373 Y41.151 E10.93302
G1 X26.801 Y40.735 E10.94425
G1 X27.551 Y40.126 E10.96242
G0 F3600 X27.798 Y40.441
G1 F1800 X28.3 Y40.13 E10.97353
G1 X29.155 Y39.704 E10.9915
G1 X29.649 Y39.528 E11.00136
G1 X30.573 Y39.288 E11.01932
G1 X31.179 Y39.211 E11.03081
G1 X32.211 Y39.135 E11.05028
G1 X49.249 Y38.092 E11.37137
G1 X50.053 Y38.073 E11.3865
G1 X50.909 Y38.094 E11.4026
G1 X51.746 Y38.158 E11.41839
G1 X52.566 Y38.26 E11.43394
G1 X53.349 Y38.396 E11.44889
G1 X54.135 Y38.571 E11.46403
G1 X54.906 Y38.781 E11.47907
G1 X55.62 Y39.01 E11.49317
G1 X56.387 Y39.298 E11.50858
G1 X57.131 Y39.616 E11.5238
G1 X57.857 Y39.969 E11.53899
G1 X58.559 Y40.351 E11.55402
G1 X59.245 Y40.769 E11.56913
G1 X59.872 Y41.19 E11.58334
G1 X60.506 Y41.659 E11.59817
G1 X61.114 Y42.152 E11.6129
G1 X61.758 Y42.729 E11.62916
G1 X62.336 Y43.301 E11.64446
G1 X62.864 Y43.878 E11.65917
G1 X63.361 Y44.468 E11.67368
G1 X63.854 Y45.116 E11.689
G1 X64.343 Y45.827 E11.70523
G1 X64.767 Y46.514 E11.72041
G1 X65.195 Y47.376 E11.73852
G1 X65.509 Y48.274 E11.75641
G1 X65.678 Y49.219 E11.77447
G1 X65.728 Y50.174 E11.79246
G1 X65.654 Y50.979 E11.80767
G1 X65.466 Y51.875 E11.82489
G1 X65.191 Y52.63 E11.84
G1 X65.074 Y52.893 E11.84542
G1 X64.722 Y53.563 E11.85965
G1 X64.432 Y54.037 E11.87011
G1 X63.956 Y54.746 E11.88617
G1 X63.469 Y55.395 E11.90143
G1 X62.975 Y55.994 E11.91604
G1 X62.472 Y56.554 E11.9302
G1 X61.895 Y57.14 E11.94567
G1 X61.277 Y57.708 E11.96145
G1 X60.658 Y58.222 E11.97659
G1 X60.04 Y58.692 E11.99119
G1 X59.334 Y59.176 E12.0073
G1 X58.637 Y59.602 E12.02266
G1 X58.013 Y59.951 E12.03611
G1 X57.277 Y60.318 E12.05158
G1 X56.535 Y60.642 E12.06681
G1 X55.843 Y60.912 E12.08078
G1 X55.07 Y61.17 E12.09611
G1 X54.341 Y61.377 E12.11037
G1 X53.596 Y61.552 E12.12476
G1 X52.858 Y61.693 E12.1389
G1 X52.082 Y61.805 E12.15364
G1 X51.309 Y61.879 E12.16825
G1 X50.548 Y61.92 E12.18259
G1 X49.716 Y61.925 E12.19824
G1 X48.943 Y61.893 E12.21279
G1 X31.439 Y60.818 E12.54267
G1 X30.817 Y60.746 E12.55445
G1 X29.855 Y60.541 E12.57295
G1 X29.155 Y60.291 E12.58693
G1 X28.536 Y60.008 E12.59974
G1 X28.07 Y59.732 E12.60992
G1 X27.303 Y59.181 E12.62769
G1 X26.886 Y58.795 E12.63838
G1 X26.254 Y58.092 E12.65616
G1 X25.93 Y57.627 E12.66682
G1 X25.459 Y56.8 E12.68472
G1 X25.216 Y56.201 E12.69688
G1 X25.111 Y55.895 E12.70297
G1 X24.928 Y55.24 E12.71576
G1 X24.834 Y54.665 E12.72672
G1 X24.759 Y53.676 E12.74538
G1 X24.76 Y46.455 E12.88121
G1 X24.782 Y45.841 E12.89277
G1 X24.915 Y44.845 E12.91167
G1 X25.158 Y43.935 E12.92938
G1 X25.457 Y43.217 E12.94401
G1 X25.772 Y42.614 E12.95681
G1 X26.087 Y42.142 E12.96749
G1 X26.681 Y41.408 E12.98525
G1 X27.065 Y41.035 E12.99532
G1 X27.798 Y40.441 E13.01306
G0 F3600 X28.045 Y40.757
G1 F1800 X28.493 Y40.48 E13.02297
G1 X29.327 Y40.065 E13.0405
G1 X30.028 Y39.83 E13.0544
